X: 632
T: Ehl-i Meclis
C: Ahmet Avni Konuk
O: Turkey
F: http://compmusic.upf.edu/node/140
N: sehnazbuselik--kupe--agiraksak--ehl-i--ahmet_avni_konuk
N: makam= sehnazbuselik
N: form= kupe
N: usul= agiraksak = 9/4
M: 9/4
L: 1/16
K: C    
Q: 1/4=60
%%MIDI tuningsystem comma53
^g4 a4 z2e4a2 a4 g2b2 g4 a4 z4  | \
w:  Ah  *  ehl_ i  mec *  *  lis   | 
^g2a2 g2a2 b4 c'4 b2a2 g2^1/4f2 b2a2 g2f2 g3f  | 
w:  fasl_ *  *  *  *  ı  Şeh *  *  *  nâ   | 
e4 z2a2 a3^g ^1/4f2g2 a4 z4 b4 c'2b2 a4  | \
w:  *  nâz  Bû *  se *  lik ten   | 
b2c'2 b2a2 d'4 c'2b2 b2a2 a2^g2 a8 z4  | 
w:  zevk  *  *  *  *  a *  lır    | 
z8 z2e4a2 a3g a2c'2 b2a2 g2^3/4f2 e4  | \
w:  Fikr_ i  gam  *  *  *  her   | 
e2f2 e2d2 b4 a2^g2 g2^1/4f2 f2e2 e8 g2fe  | 
w:  nağ *  *  *  *  me *  sin *  *  *  den   | 
e8 z2e4e2 e4 d2c2 d2f2 e2d2 c3B  | \
w:  *  dil de  kuv *  *  vet  | 
A4 A2B2 c2d2 c2B2 B2A2 A2^G2 A8 z4  | 
w:  ten  *  *  *  *  ka *  lır    | 
|


